X:1
T:Ave Maria
T:Ave Maria
T:For violin and piano
T:J.S. Bach and Charles Gounod Arrangement by Jaime A. Sánchez 
C:J.S. Bach and Charles Gounod
%%score 1 { 2 | ( 3 4 ) }
L:1/8
Q:1/4=70
M:4/4
K:C
V:1 treble nm="Violín" snm="Vln."
V:2 treble nm="Piano" snm="Pno."
V:3 bass 
V:4 bass 
V:1
"^Adagio" z8 | z8 | z8 | z8 | E8 | F6- FF | G6- GD | E8 | A4- AA,B,C | D3 E D4 | G4- GG,A,B, | %11
 C3 D C4 | c4- cCDE | ^F3 E D2 A,2 | B,6 D2 | E4- EEFG | A4 A,4 | D4- DDEF | G4 G,4 | C4- CCDE | %20
 F4- FFGA | B3 A G2 D2 | E6 z2 | G4 E3 E | A4 A,4 |!f! A4 C3 A |!<(! c4 C3 c!<)! |!f! c4 D4 | %28
!f! D4- DDCB, | G3 E C4 |!mf! F4- F!<(!FED!<)! |!f! d3 B G4 |!mp! A4-!<(! AABc!<)! |!f! e4- ecGE | %34
 D4- DABA |!>(! GdBG FDB,!mp!G,!>)! | C8 | C8 |!ff!!mp!!<(! G,8-!<)! | !fermata!G,8 |] %40
V:2
 z G/c/ e/G/c/e/ z G/c/ e/G/c/e/ | z A/d/ f/A/d/f/ z A/d/ f/A/d/f/ | %2
 z G/d/ f/G/d/f/ z G/d/ f/G/d/f/ | z G/c/ e/G/c/e/ z G/c/ e/G/c/e/ | %4
 z G/c/ e/G/c/e/ z G/c/ e/G/c/e/ | z A/d/ f/A/d/f/ z A/d/ f/A/d/f/ | %6
 z G/d/ f/G/d/f/ z G/d/ f/G/d/f/ | z G/c/ e/G/c/e/ z G/c/ e/G/c/e/ | %8
 z A/e/ a/A/e/a/ z A/e/ a/A/e/a/ | z ^F/A/ d/F/A/d/ z F/A/ d/F/A/d/ | %10
 z G/d/ g/G/d/g/ z G/d/ g/G/d/g/ | z E/G/ c/E/G/c/ z E/G/ c/E/G/c/ | %12
 z E/G/ c/E/G/c/ z E/G/ c/E/G/c/ | z D/^F/ c/D/F/c/ z D/F/ c/D/F/c/ | %14
 z D/G/ B/D/G/B/ z D/G/ B/D/G/B/ | z E/G/ ^c/E/G/c/ z E/G/ c/E/G/c/ | %16
 z D/A/ d/D/A/d/ z D/A/ d/D/A/d/ | z D/F/ B/D/F/B/ z D/F/ B/D/F/B/ | %18
 z C/G/ c/C/G/c/ z C/G/ c/C/G/c/ | z A,/C/ F/A,/C/F/ z A,/C/ F/A,/C/F/ | %20
 z A,/C/ F/A,/C/F/ z A,/C/ F/A,/C/F/ | z G,/B,/ F/G,/B,/F/ z G,/B,/ F/G,/B,/F/ | %22
 z G,/C/ E/G,/C/E/ z G,/C/ E/G,/C/E/ | z _B,/C/ E/B,/C/E/ z B,/C/ E/B,/C/E/ | %24
 z A,/C/ E/A,/C/E/ z A,/C/ E/A,/C/E/ | z A,/C/ _E/A,/C/E/ z A,/C/ E/A,/C/E/ | %26
 z B,/C/ D/B,/C/D/ z B,/C/ D/B,/C/D/ | z B,/C/ D/B,/C/D/ z B,/C/ D/B,/C/D/ | %28
 z G,/B,/ D/G,/B,/D/ z G,/B,/ D/G,/B,/D/ | z G,/C/ E/G,/C/E/ z G,/C/ E/G,/C/E/ | %30
 z G,/C/ F/G,/C/F/ z G,/C/ F/G,/C/F/ | z G,/B,/ F/G,/B,/F/ z G,/B,/ F/G,/B,/F/ | %32
 z A,/C/ ^F/A,/C/F/ z A,/C/ F/A,/C/F/ | z G,/C/ G/G,/C/G/ z G,/C/ G/G,/C/G/ | %34
 z G,/C/ F/G,/C/F/ z G,/C/ F/G,/C/F/ | z G,/B,/ F/G,/B,/F/ z G,/B,/ F/G,/B,/F/ | %36
 z G,/_B,/ E/G,/B,/E/ z G,/B,/ E/G,/B,/E/ | %37
 z F,/A,/ C/F/C/A,/ C/[I:staff +1]A,/F,/A,/ F,/D,/F,/D,/ | %38
[I:staff -1] z G/B/ d/f/d/B/ d/B/G/B/ D/F/E/D/ | !fermata![EGc]8 |] %40
V:3
 z/ E3/2- E2 z/ E3/2- E2 | z/ D3/2- D2 z/ D3/2- D2 | z/ D3/2- D2 z/ D3/2- D2 | %3
 z/ E3/2- E2 z/ E3/2- E2 | z/ E3/2- E2 z/ E3/2- E2 | z/ D3/2- D2 z/ D3/2- D2 | %6
 z/ D3/2- D2 z/ D3/2- D2 | z/ E3/2- E2 z/ E3/2- E2 | z/ E3/2- E2 z/ E3/2- E2 | %9
 z/ D3/2- D2 z/ D3/2- D2 | z/ D3/2- D2 z/ D3/2- D2 | z/ C3/2- C2 z/ C3/2- C2 | %12
 z/ C3/2- C2 z/ C3/2- C2 | z/ A,3/2- A,2 z/ A,3/2- A,2 | z/ B,3/2- B,2 z/ B,3/2- B,2 | %15
 z/ _B,3/2- B,2 z/ B,3/2- B,2 | z/ A,3/2- A,2 z/ A,3/2- A,2 | z/ _A,3/2- A,2 z/ A,3/2- A,2 | %18
 z/ G,3/2- G,2 z/ G,3/2- G,2 | z/ F,3/2- F,2 z/ F,3/2- F,2 | z/ F,3/2- F,2 z/ F,3/2- F,2 | %21
 z/ D,3/2- D,2 z/ D,3/2- D,2 | z/ E,3/2- E,2 z/ E,3/2- E,2 | z/ G,3/2- G,2 z/ G,3/2- G,2 | %24
 z/ F,3/2- F,2 z/ F,3/2- F,2 | z/ C,3/2- C,2 z/ C,3/2- C,2 | z/ F,3/2- F,2 z/ F,3/2- F,2 | %27
 z/ F,3/2- F,2 z/ F,3/2- F,2 | z/ F,3/2- F,2 z/ F,3/2- F,2 | z/ E,3/2- E,2 z/ E,3/2- E,2 | %30
 z/ D,3/2- D,2 z/ D,3/2- D,2 | z/ D,3/2- D,2 z/ D,3/2- D,2 | z/ _E,3/2- E,2 z/ E,3/2- E,2 | %33
 z/ =E,3/2- E,2 z/ E,3/2- E,2 | z/ D,3/2- D,2 z/ D,3/2- D,2 | z/ D,3/2- D,2 z/ D,3/2- D,2 | %36
 z/ C,3/2- C,2 z/ C,3/2- C,2 | z/ C,3/2- C,6 | z/ B,,3/2- B,,6 | !fermata![C,,C,]8 |] %40
V:4
 C4 C4 | C4 C4 | B,4 B,4 | C4 C4 | C4 C4 | C4 C4 | B,4 B,4 | C4 C4 | C4 C4 | C4 C4 | B,4 B,4 | %11
 B,4 B,4 | A,4 A,4 | D,4 D,4 | G,4 G,4 | G,4 G,4 | F,4 F,4 | F,4 F,4 | E,4 E,4 | E,4 E,4 | %20
 D,4 D,4 | G,,4 G,,4 | C,4 C,4 | C,4 C,4 | F,,4 F,,4 | ^F,,4 F,,4 | _A,,4 A,,4 | _A,,4 A,,4 | %28
 G,,4 G,,4 | G,,4 G,,4 | G,,4 G,,4 | G,,4 G,,4 | G,,4 G,,4 | G,,4 G,,4 | G,,4 G,,4 | G,,4 G,,4 | %36
 C,,4 C,,4 | C,,4- C,,4 | C,,4- C,,4 | x8 |] %40

